X: 39411
T: Tapdancer, The
R: jig
M: 6/8
K: Ddorian
AGA DCD|AGA c2G|EDE CCC|ECE GcB|
AGA DCD|AGA d2A|czA GEG|AGE D2A:|
Add AcG|AGA d2A|GED CCC|ECE GcB|
Add AcG|AGA d2A|c2A GEG|AGE DEG|
Add AcG|AGA d2A|GED CCC|ECE GcB|
AGA DCD|AGA d2A|czA GEG|AGE D3||

